X: 841
T: Windfor Terras
%R: reel
B: "The Compleat Country Dancing-Master" printed by John Walsh, London ca. 1740
S: 6: CCDM2 http://imslp.org/wiki/The_Compleat_Country_Dancing-Master_(Various) V.2 (133)
Z: 2013 John Chambers <jc:trillian.mit.edu>
N: Repeat added to match dance destription
M: C|
L: 1/8
K: Dm
% - - - - - - - - - - - - - - - - - - - - - - - - -
|:\
d2 Af e3 A | df ed ^c3 =B |\
Ad Gd Fd Ed | Dd e^c d4 :|\
a2 f/g/a g3 g | af f/g/a g3 f |
eg dg cg Bg | Af ge f4 |\
af f/g/a b3 a | gfed ^c3 =B |\
Ad Gd Fd Ed | Dd e^c d4 |]
% - - - - - - - - - - - - - - - - - - - - - - - - -
%%center Note The 1st strain is to be play'd twice and the last but once
%%begintext align
%% The 1st Cu. cast off. the Man hey with the 3d Cu. and
%% the Wo. hey with the 2d Cu. .| The 1st and 3d Cu.
%% turn Hands across all four. and back again :| Then
%% right and left quite round with the 2d Cu. .|
%%endtext
%%sep 1 8 500

%%sep 1 1 500
%%sep 1 1 500
